docs/images/icons/bag-business.svg

<svg width="35" height="35" fill="none" xmlns="http://www.w3.org/2000/svg"><defs><clipPath id="a"><path fill="#fff" fill-opacity="0" d="M0 0h35v35H0z"/></clipPath></defs><path d="M0 0h35v35H0z"/><g clip-path="url(#a)" fill="#263238"><path d="M32.26 31.71H2.73c-.9 0-1.64-.73-1.64-1.64v-6.56c0-.3.24-.55.55-.55.3 0 .54.25.54.55v6.56c0 .3.25.55.55.55h29.53c.3 0 .55-.25.55-.55v-6.56c0-.3.24-.55.54-.55.31 0 .55.25.55.55v6.56c0 .91-.74 1.64-1.64 1.64ZM23.51 6.56c-.3 0-.55-.25-.55-.55V3.82c0-.3-.24-.54-.54-.54h-9.85c-.3 0-.54.24-.54.54v2.19c0 .3-.25.55-.55.55-.3 0-.55-.25-.55-.55V3.82c0-.9.74-1.64 1.64-1.64h9.85c.9 0 1.64.74 1.64 1.64v2.19c0 .3-.25.55-.55.55Z"/><path d="M30.07 22.96h-2.18a.54.54 0 0 1-.55-.54c0-.3.24-.55.55-.55h2.18c1.51 0 2.74-1.23 2.74-2.73V8.75H3.82c-.3 0-.54-.25-.54-.55 0-.3.24-.55.54-.55h29.53c.31 0 .55.25.55.55v10.94c0 2.11-1.72 3.82-3.83 3.82Zm-22.97 0H4.92c-2.11 0-3.83-1.71-3.83-3.82V8.2c0-.3.24-.55.55-.55.3 0 .54.25.54.55v10.94c0 1.5 1.23 2.73 2.74 2.73H7.1c.31 0 .55.25.55.55 0 .3-.24.54-.55.54Zm14.22 0h-7.65c-.3 0-.55-.24-.55-.54 0-.3.25-.55.55-.55h7.65c.3 0 .55.25.55.55 0 .3-.25.54-.55.54Zm-10.93 2.19c-.91 0-1.64-.73-1.64-1.64v-3.28c0-.3.24-.55.54-.55h2.19c.3 0 .55.25.55.55v3.28c0 .91-.74 1.64-1.64 1.64Zm-.55-4.37v2.73c0 .3.24.55.55.55.3 0 .54-.25.54-.55v-2.73H9.84Z"/><path d="M24.6 25.15c-.9 0-1.64-.73-1.64-1.64v-3.28c0-.3.25-.55.55-.55h2.19c.3 0 .55.25.55.55v3.28c0 .91-.74 1.64-1.65 1.64Zm-.54-4.37v2.73c0 .3.24.55.54.55.31 0 .55-.25.55-.55v-2.73h-1.09Z"/></g></svg>

<svg width="35.000000" height="35.000000" viewBox="0 0 35 35" fill="none" xmlns="http://www.w3.org/2000/svg" xmlns:xlink="http://www.w3.org/1999/xlink">
	<desc>
			Created with Pixso.
	</desc>
	<defs>
		<clipPath id="clip339_228">
			<rect id="bag-business-case-svgrepo-com 1" width="35.000000" height="35.000000" fill="white" fill-opacity="0"/>
		</clipPath>
	</defs>
	<rect id="bag-business-case-svgrepo-com 1" width="35.000000" height="35.000000" fill="#FFFFFF" fill-opacity="0"/>
	<g clip-path="url(#clip339_228)">
		<path id="Vector" d="M32.26 31.71L2.73 31.71C1.83 31.71 1.09 30.98 1.09 30.07L1.09 23.51C1.09 23.21 1.33 22.96 1.64 22.96C1.94 22.96 2.18 23.21 2.18 23.51L2.18 30.07C2.18 30.37 2.43 30.62 2.73 30.62L32.26 30.62C32.56 30.62 32.81 30.37 32.81 30.07L32.81 23.51C32.81 23.21 33.05 22.96 33.35 22.96C33.66 22.96 33.9 23.21 33.9 23.51L33.9 30.07C33.9 30.98 33.16 31.71 32.26 31.71Z" fill="#263238" fill-opacity="1.000000" fill-rule="nonzero"/>
		<path id="Vector" d="M23.51 6.56C23.21 6.56 22.96 6.31 22.96 6.01L22.96 3.82C22.96 3.52 22.72 3.28 22.42 3.28L12.57 3.28C12.27 3.28 12.03 3.52 12.03 3.82L12.03 6.01C12.03 6.31 11.78 6.56 11.48 6.56C11.18 6.56 10.93 6.31 10.93 6.01L10.93 3.82C10.93 2.92 11.67 2.18 12.57 2.18L22.42 2.18C23.32 2.18 24.06 2.92 24.06 3.82L24.06 6.01C24.06 6.31 23.81 6.56 23.51 6.56Z" fill="#263238" fill-opacity="1.000000" fill-rule="nonzero"/>
		<path id="Vector" d="M30.07 22.96L27.89 22.96C27.58 22.96 27.34 22.72 27.34 22.42C27.34 22.12 27.58 21.87 27.89 21.87L30.07 21.87C31.58 21.87 32.81 20.64 32.81 19.14L32.81 8.75L3.82 8.75C3.52 8.75 3.28 8.5 3.28 8.2C3.28 7.9 3.52 7.65 3.82 7.65L33.35 7.65C33.66 7.65 33.9 7.9 33.9 8.2L33.9 19.14C33.9 21.25 32.18 22.96 30.07 22.96Z" fill="#263238" fill-opacity="1.000000" fill-rule="nonzero"/>
		<path id="Vector" d="M7.1 22.96L4.92 22.96C2.81 22.96 1.09 21.25 1.09 19.14L1.09 8.2C1.09 7.9 1.33 7.65 1.64 7.65C1.94 7.65 2.18 7.9 2.18 8.2L2.18 19.14C2.18 20.64 3.41 21.87 4.92 21.87L7.1 21.87C7.41 21.87 7.65 22.12 7.65 22.42C7.65 22.72 7.41 22.96 7.1 22.96Z" fill="#263238" fill-opacity="1.000000" fill-rule="nonzero"/>
		<path id="Vector" d="M21.32 22.96L13.67 22.96C13.37 22.96 13.12 22.72 13.12 22.42C13.12 22.12 13.37 21.87 13.67 21.87L21.32 21.87C21.62 21.87 21.87 22.12 21.87 22.42C21.87 22.72 21.62 22.96 21.32 22.96Z" fill="#263238" fill-opacity="1.000000" fill-rule="nonzero"/>
		<path id="Vector" d="M10.39 25.15C9.48 25.15 8.75 24.42 8.75 23.51L8.75 20.23C8.75 19.93 8.99 19.68 9.29 19.68L11.48 19.68C11.78 19.68 12.03 19.93 12.03 20.23L12.03 23.51C12.03 24.42 11.29 25.15 10.39 25.15ZM9.84 20.78L9.84 23.51C9.84 23.81 10.08 24.06 10.39 24.06C10.69 24.06 10.93 23.81 10.93 23.51L10.93 20.78L9.84 20.78Z" fill="#263238" fill-opacity="1.000000" fill-rule="nonzero"/>
		<path id="Vector" d="M24.6 25.15C23.7 25.15 22.96 24.42 22.96 23.51L22.96 20.23C22.96 19.93 23.21 19.68 23.51 19.68L25.7 19.68C26 19.68 26.25 19.93 26.25 20.23L26.25 23.51C26.25 24.42 25.51 25.15 24.6 25.15ZM24.06 20.78L24.06 23.51C24.06 23.81 24.3 24.06 24.6 24.06C24.91 24.06 25.15 23.81 25.15 23.51L25.15 20.78L24.06 20.78Z" fill="#263238" fill-opacity="1.000000" fill-rule="nonzero"/>
	</g>
</svg>
